svgs/sharp-light/brackets-square.svg

<svg xmlns="http://www.w3.org/2000/svg" viewBox="0 0 448 512"><!--! Font Awesome Pro 6.6.0 by @fontawesome - https://fontawesome.com License - https://fontawesome.com/license (Commercial License) Copyright 2024 Fonticons, Inc. --><path d="M16 32L0 32 0 48 0 464l0 16 16 0 128 0 16 0 0-32-16 0L32 448 32 64l112 0 16 0 0-32-16 0L16 32zm416 0L304 32l-16 0 0 32 16 0 112 0 0 384-112 0-16 0 0 32 16 0 128 0 16 0 0-16 0-416 0-16-16 0z"/></svg>

<svg xmlns="http://www.w3.org/2000/svg" viewBox="0 0 448 512"><!--! Font Awesome Pro 6.4.0 by @fontawesome - https://fontawesome.com License - https://fontawesome.com/license (Commercial License) Copyright 2023 Fonticons, Inc. --><path d="M16 32H0V48 464v16H16 144h16V448H144 32V64H144h16V32H144 16zm416 0H304 288V64h16H416V448H304 288v32h16H432h16V464 48 32H432z"/></svg>
